X:260
T:score60
L:1/8
Q:1/4=96
M:1/8
I:linebreak $
K:Amin
 (E |[M:6/8] A2 B c2 d | e2 e e3 | f3 f3 | e3- e2) (e |$ d3 d2 d | c2 d c2 c | B3 B3 | %8
[M:5/8] A3- A2) |] %9
